!!!OTL: Bohnenlied
!!!ARE: Europa, Mitteleuropa, Deutschland
!!!SCT: A0362
!!!YEM: Copyright 1995, estate of Helmut Schaffrath.
**kern
*ICvox
*Ivox
*M4/4
*k[b-]
*F:
{4cc
4dd
4dd
=1
4g
4cc
4.a
8f
=2
4g
4g
2f
=3
4r}
{4cc
4cc
4cc
=4
4.dd
8cc
4bn
4cc
=5
2bn
2cc
=6
4r}
{4cc
4dd
4dd
=7
4g
4cc
4.a
8f
=8
4g
4g
2f
=9
4r}
{4cc
4cc
4cc
=10
4.dd
8cc
4bn
4cc
=11
2bn
2cc
=12
4r}
{4cc
4dd
4ee
=13
2ff
4r
4ee
=14
4dd
4cc#
2dd
=15
4r}
{4ff
4dd
4ee
=16
4.ff
8ee
4dd
4cc
=17
2b-
2a
=18
4r}
{4cc
4dd
4bn
=19
2cc
4r
4a
=20
4b-
4g
2a
=21
4r}
{4f
4cc
4a
=22
4f
4a
2g
=23
1f
=24
4r}
==
!!!AGN: Romanze, Ballade, Lied
!! Pet. Schoeffer II. 1537 No. 6., hier giebt Boehme die vereinfachte
!!    Form nach Werlin 1646 S. 3135.
!!!ONB: ESAC (Essen Associative Code) Database: ALTDEU
!!!AMT: simple quadruple
!!!AIN: vox
!!!EED: Helmut Schaffrath
!!!EEV: 1.0
*-
